assets/img/arrow_upward_24px.svg

<svg width="24" height="24" viewBox="0 0 24 24" fill="none" xmlns="http://www.w3.org/2000/svg">
<path d="M13.4981 22.1862V5.43123L20.8181 12.7512C21.4031 13.3362 22.3631 13.3362 22.9481 12.7512C23.5331 12.1662 23.5331 11.2212 22.9481 10.6362L13.0631 0.751228C12.7829 0.470349 12.4024 0.3125 12.0056 0.3125C11.6088 0.3125 11.2284 0.470349 10.9481 0.751228L1.04812 10.6212C0.463125 11.2062 0.463125 12.1512 1.04812 12.7362C1.63312 13.3212 2.57812 13.3212 3.16313 12.7362L10.4981 5.43123V22.1862C10.4981 23.0112 11.1731 23.6862 11.9981 23.6862C12.8231 23.6862 13.4981 23.0112 13.4981 22.1862Z" fill="white" fill-opacity="0.87"/>
</svg>

<svg width="24" height="24" fill="none" xmlns="http://www.w3.org/2000/svg"><path d="M13.498 22.186V5.431l7.32 7.32a1.512 1.512 0 0 0 2.13 0 1.494 1.494 0 0 0 0-2.115L13.063.751a1.494 1.494 0 0 0-2.115 0l-9.9 9.87a1.494 1.494 0 0 0 0 2.115c.585.585 1.53.585 2.115 0l7.335-7.305v16.755c0 .825.675 1.5 1.5 1.5s1.5-.675 1.5-1.5Z" fill="#fff" fill-opacity=".87"/></svg>
